X: 28
T:Sweet Jenny Jones
% Nottingham Music Database
S:Adderbury
M:3/4
L:1/4
Y:ABA
K:C
P:A
A/2B/2|cGE|C3/2D/2E|FAd|BGB|cGE|F3/2G/2A|GcB|c2:|
P:B
c/2d/2|ece|dBG|cAc|BGc/2d/2|ece|dBG|cBA|G2||

